X:1
T:Title
%%score ( 1 2 ) ( 3 4 )
L:1/8
M:6/8
K:Eb
V:1 treble nm="Grand Piano"
V:2 treble 
V:3 bass nm="Grand Piano"
V:4 bass 
V:1
 z3 z2[Q:1/4=87] [EG] | [EG]2 [EG] [GB]2 [EG] | [DG]2 [DF] E2 E | [Ec]2 [EB] B-[FB][E=A] | %4
[M:5/8] [DB]-[DB]- [DB]3 |[M:1/8] [EG] |[M:3/4] [EG]2 [EG] [GB]2 [EG] | [DG]2 [DF] E2 [Ec] | %8
 BG EG- [CG][DF] |[M:5/8] E-E- E3 |[M:1/8] [DF] |[M:3/4] [DF]2 [EG] [FA]2 [DF] | %12
 [EG]2 [EA] [EB]2 [GB] | [FB]2 [DB][Ec] [Fd][Ec] |[M:5/8] [DB]-[DB]- [DB]3 |[M:1/8] [FB] | %16
[M:3/4] [Ee]2 [GB] [GB]2 [EG] | [EA]2 [Ec] [EB]2 [DB] | [EB]E [EA] [EG]2 [DF] |[M:5/8] E-E- E3 |] %20
V:2
 x6 | x6 | x6 | z3 .D3 |[M:5/8] x5 |[M:1/8] x |[M:3/4] x6 | x6 | E2 z E z2 |[M:5/8] x5 |[M:1/8] x | %11
[M:3/4] x6 | x6 | x6 |[M:5/8] x5 |[M:1/8] x |[M:3/4] x6 | x6 | x6 |[M:5/8] x5 |] %20
V:3
 z3 z2 [E,B,] | [E,B,]2 [E,B,] [E,E]2 [E,B,] | [B,,B,]2 [B,,A,] [E,G,]2 [E,G,] | %3
 A,2 [G,B,] B,D[F,C] |[M:5/8] [B,,B,]-[B,,B,]- [B,,B,]3 |[M:1/8] [E,B,] | %6
[M:3/4] [E,B,]2 [E,B,] [E,E]2 [E,B,] | [B,,B,]2 [B,,A,] [C,G,]2 [A,,A,] | %8
 E,-[E,B,] [G,B,] B,2 [B,,A,] |[M:5/8] [E,G,]-[E,G,]- [E,G,]3 |[M:1/8] [B,,B,] | %11
[M:3/4] [B,,B,]2 [B,,B,] [B,,B,]2 [B,,B,] | [E,B,]2 [F,B,] [G,B,]2 [=E,_D] | %13
 [F,D]2 [F,B,] [F,=A,]2 [F,A,] |[M:5/8] B,-B,- B,3 |[M:1/8] [A,B,] | %16
[M:3/4] [G,B,]2 [E,E] [E,E]2 [_D,B,] | [C,A,]2 [A,,A,] [E,G,]2 [F,A,] | %18
 [G,B,][A,C] [F,C] B,2 [B,,A,] |[M:5/8] [E,G,]-[E,G,]- [E,G,]3 |] %20
V:4
 x6 | x6 | x6 | z3 .F,3 |[M:5/8] x5 |[M:1/8] x |[M:3/4] x6 | x6 | .G,2 z2 z2 |[M:5/8] x5 | %10
[M:1/8] x |[M:3/4] x6 | x6 | x6 |[M:5/8] x5 |[M:1/8] x |[M:3/4] x6 | x6 | x6 |[M:5/8] x5 |] %20

